X:1
T:Title
L:1/8
M:4/4
K:Eb
V:1 treble nm="Grand Piano"
V:1
 z4 z2[Q:1/4=140] G2 | C3 D E2 C2 | A4 A2 A2 | D3 E F2 D2 | =B3 A GFED | C3 D E2 C2 | A4 A2 A2 | %7
 D3 E F2 D2 | =B6 G2 | c6 G2 | =B6 G2 | A3 G _G2 G2 | G6 G2 | c3 e dcBG | A6 A2 | G3 _G =G2 E2 | %16
 C6 G2 | G3 A G2 E2 | _G4 G2 D2 | F3 E D2 F2 | E6 G2 | G3 G G2 E2 | _G4 G2 D2 | F3 E D2 C2 | %24
 D6 E2 | C3 D E2 C2 | F4 F2 F2 | D3 E F2 D2 | G6 G2 | c3 G B2 F2 | A3 B/A/ G2 G2 | G2 F2 G2 F2 | %32
 G6 G2 | c6 G2 | =B6 G2 | A3 G _G2 G2 | G6 G2 | c3 e dcBG | A6 A2 | G3 _G =G2 E2 |[M:3/4] C6 | %41
[M:1/4] G2 |[M:4/4] C3 D E2 C2 | A4 A2 A2 | D3 E F2 D2 | =B3 A GFED | C3 D E2 C2 | A4 A2 A2 | %48
 D3 E F2 D2 | =B6 G2 | c6 G2 | =B6 G2 | A3 G _G2 G2 | G6 G2 | c3 e dcBG | A6 A2 |] %56

